utils/icons-generator/ic_platform_gog.svg

<?xml version="1.0" encoding="UTF-8"?>
<svg xmlns="http://www.w3.org/2000/svg" xmlns:xlink="http://www.w3.org/1999/xlink" width="1000pt" height="1000pt" viewBox="0 0 1000 1000" version="1.1">
<g id="surface1">
<path style=" stroke:none;fill-rule:nonzero;fill:rgb(0%,0%,0%);fill-opacity:1;" d="M 500 40 C 246.339844 40 40 246.359375 40 500 C 40 753.640625 246.339844 960 500 960 C 753.660156 960 960 753.640625 960 500 C 960 246.359375 753.660156 40 500 40 Z M 232 260 L 348 260 C 365.671875 260 380 274.328125 380 292 L 380 488 C 380 505.679688 365.679688 520 348 520 L 200 520 L 200 480 L 328 480 C 334.628906 480 340 474.628906 340 468 L 340 312 C 340 305.371094 334.628906 300 328 300 L 252 300 C 245.371094 300 240 305.371094 240 312 L 240 388 C 240 394.628906 245.371094 400 252 400 L 310 400 L 310 440 L 232 440 C 214.328125 440 200 425.671875 200 408 L 200 292 C 200 274.320312 214.320312 260 232 260 Z M 442 260 L 558 260 C 575.640625 260 590 274.359375 590 292 L 590 408 C 590 425.640625 575.640625 440 558 440 L 442 440 C 424.359375 440 410 425.640625 410 408 L 410 292 C 410 274.359375 424.359375 260 442 260 Z M 652 260 L 768 260 C 785.671875 260 800 274.328125 800 292 L 800 488 C 800 505.679688 785.679688 520 768 520 L 620 520 L 620 480 L 748 480 C 754.628906 480 760 474.628906 760 468 L 760 312 C 760 305.371094 754.628906 300 748 300 L 672 300 C 665.371094 300 660 305.371094 660 312 L 660 388 C 660 394.628906 665.371094 400 672 400 L 730 400 L 730 440 L 652 440 C 634.328125 440 620 425.671875 620 408 L 620 292 C 620 274.320312 634.320312 260 652 260 Z M 462 300 C 455.371094 300 450 305.371094 450 312 L 450 388 C 450 394.628906 455.371094 400 462 400 L 538 400 C 544.628906 400 550 394.628906 550 388 L 550 312 C 550 305.371094 544.628906 300 538 300 Z M 232 560 L 350 560 L 350 600 L 252 600 C 245.371094 600 240 605.371094 240 612 L 240 688 C 240 694.628906 245.371094 700 252 700 L 350 700 L 350 740 L 232 740 C 214.328125 740 200 725.671875 200 708 L 200 592 C 200 574.328125 214.328125 560 232 560 Z M 412 560 L 528 560 C 545.640625 560 560 574.359375 560 592 L 560 708 C 560 725.640625 545.640625 740 528 740 L 412 740 C 394.359375 740 380 725.640625 380 708 L 380 592 C 380 574.359375 394.359375 560 412 560 Z M 622 560 L 800 560 L 800 740 L 760 740 L 760 600 L 727 600 C 720.371094 600 715 605.371094 715 612 L 715 740 L 675 740 L 675 600 L 642 600 C 635.371094 600 630 605.371094 630 612 L 630 740 L 590 740 L 590 592 C 590 574.328125 604.328125 560 622 560 Z M 432 600 C 425.371094 600 420 605.371094 420 612 L 420 688 C 420 694.628906 425.371094 700 432 700 L 508 700 C 514.628906 700 520 694.628906 520 688 L 520 612 C 520 605.371094 514.628906 600 508 600 Z M 432 600 "/>
</g>
</svg>

<?xml version="1.0" encoding="UTF-8" standalone="no"?>
<svg
   xmlns:dc="http://purl.org/dc/elements/1.1/"
   xmlns:cc="http://creativecommons.org/ns#"
   xmlns:rdf="http://www.w3.org/1999/02/22-rdf-syntax-ns#"
   xmlns:svg="http://www.w3.org/2000/svg"
   xmlns="http://www.w3.org/2000/svg"
   xmlns:sodipodi="http://sodipodi.sourceforge.net/DTD/sodipodi-0.dtd"
   xmlns:inkscape="http://www.inkscape.org/namespaces/inkscape"
   width="1000pt"
   height="1000pt"
   viewBox="0 0 1000 1000"
   version="1.1"
   id="svg1267"
   sodipodi:docname="ic_platform_gog.svg"
   inkscape:version="0.92.4 (5da689c313, 2019-01-14)">
  <metadata
     id="metadata1273">
    <rdf:RDF>
      <cc:Work
         rdf:about="">
        <dc:format>image/svg+xml</dc:format>
        <dc:type
           rdf:resource="http://purl.org/dc/dcmitype/StillImage" />
      </cc:Work>
    </rdf:RDF>
  </metadata>
  <defs
     id="defs1271" />
  <sodipodi:namedview
     pagecolor="#ffffff"
     bordercolor="#666666"
     borderopacity="1"
     objecttolerance="10"
     gridtolerance="10"
     guidetolerance="10"
     inkscape:pageopacity="0"
     inkscape:pageshadow="2"
     inkscape:window-width="2560"
     inkscape:window-height="1346"
     id="namedview1269"
     showgrid="false"
     inkscape:zoom="0.177"
     inkscape:cx="666.66667"
     inkscape:cy="666.66667"
     inkscape:window-x="-11"
     inkscape:window-y="-11"
     inkscape:window-maximized="1"
     inkscape:current-layer="svg1267" />
  <g
     id="surface1"
     transform="matrix(1.0842391,0,0,1.0842391,-42.119565,-42.119565)">
    <path
       style="fill:#000000;fill-opacity:1;fill-rule:nonzero;stroke:none"
       d="M 500,40 C 246.33984,40 40,246.35937 40,500 40,753.64062 246.33984,960 500,960 753.66016,960 960,753.64062 960,500 960,246.35937 753.66016,40 500,40 Z M 232,260 h 116 c 17.67187,0 32,14.32812 32,32 v 196 c 0,17.67969 -14.32031,32 -32,32 H 200 v -40 h 128 c 6.62891,0 12,-5.37109 12,-12 V 312 c 0,-6.62891 -5.37109,-12 -12,-12 h -76 c -6.62891,0 -12,5.37109 -12,12 v 76 c 0,6.62891 5.37109,12 12,12 h 58 v 40 h -78 c -17.67188,0 -32,-14.32813 -32,-32 V 292 c 0,-17.67969 14.32031,-32 32,-32 z m 210,0 h 116 c 17.64062,0 32,14.35937 32,32 v 116 c 0,17.64062 -14.35938,32 -32,32 H 442 c -17.64063,0 -32,-14.35938 -32,-32 V 292 c 0,-17.64063 14.35937,-32 32,-32 z m 210,0 h 116 c 17.67187,0 32,14.32812 32,32 v 196 c 0,17.67969 -14.32031,32 -32,32 H 620 v -40 h 128 c 6.62891,0 12,-5.37109 12,-12 V 312 c 0,-6.62891 -5.37109,-12 -12,-12 h -76 c -6.62891,0 -12,5.37109 -12,12 v 76 c 0,6.62891 5.37109,12 12,12 h 58 v 40 h -78 c -17.67188,0 -32,-14.32813 -32,-32 V 292 c 0,-17.67969 14.32031,-32 32,-32 z m -190,40 c -6.62891,0 -12,5.37109 -12,12 v 76 c 0,6.62891 5.37109,12 12,12 h 76 c 6.62891,0 12,-5.37109 12,-12 v -76 c 0,-6.62891 -5.37109,-12 -12,-12 z M 232,560 h 118 v 40 h -98 c -6.62891,0 -12,5.37109 -12,12 v 76 c 0,6.62891 5.37109,12 12,12 h 98 v 40 H 232 c -17.67188,0 -32,-14.32813 -32,-32 V 592 c 0,-17.67188 14.32812,-32 32,-32 z m 180,0 h 116 c 17.64062,0 32,14.35937 32,32 v 116 c 0,17.64062 -14.35938,32 -32,32 H 412 c -17.64063,0 -32,-14.35938 -32,-32 V 592 c 0,-17.64063 14.35937,-32 32,-32 z m 210,0 H 800 V 740 H 760 V 600 h -33 c -6.62891,0 -12,5.37109 -12,12 V 740 H 675 V 600 h -33 c -6.62891,0 -12,5.37109 -12,12 V 740 H 590 V 592 c 0,-17.67188 14.32812,-32 32,-32 z m -190,40 c -6.62891,0 -12,5.37109 -12,12 v 76 c 0,6.62891 5.37109,12 12,12 h 76 c 6.62891,0 12,-5.37109 12,-12 v -76 c 0,-6.62891 -5.37109,-12 -12,-12 z m 0,0"
       id="path1264"
       inkscape:connector-curvature="0" />
  </g>
</svg>
